assets/icons/uE001-addfile.svg

<svg xmlns="http://www.w3.org/2000/svg" width="896" height="1232" viewBox="0 0 896 1232"><path d="M336 812v-28h420v28H336zm420-112v28H336v-28h420zm0-84v28H336v-28h420zm140-263v543q0 23-16.5 39.5T840 952H252q-23 0-39.5-16.5T196 896V504h56v392h588V364H588V112H308V56h294q22 0 40 16l238 241q16 18 16 40zm-280-17h224L616 112v224zM252 448H140V308H0V196h140V56h112v140h140v112H252v140z"/></svg>

<?xml version="1.0" encoding="UTF-8" standalone="no"?><svg   xmlns:svg="http://www.w3.org/2000/svg"   xmlns="http://www.w3.org/2000/svg"   version="1.1"   width="896"   height="1232"   viewBox="0 0 896 1232">  <path     d="M336 812V784H756V812H336zM756 700V728H336V700H756zM756 616V644H336V616H756zM896 353V896Q896 919 879.5 935.5T840 952H252Q229 952 212.5 935.5T196 896V504H252V896H840V364H588V112H308V56H602Q624 56 642 72L880 313Q896 331 896 353zM616 336H840L616 112V336zM252 448H140V308H0V196H140V56H252V196H392V308H252V448z"     id="icon221" /></svg>
